X: 20513
T: John MacDonald's
R: march
M: 
K: Dmajor
M:2/4
f|:A>A Ad|f2 ed|B>A Bd|BA Ad|c2 cd|e2 e>f|gf ed|fe cA|
A>A Ad|f2 ed|B>A Bd|BA Ad|c2 cd|e2 ef|ge ce|d2-d:|
f/g/|a2 ag|f2 fe|d>e dB|A3 d|c2 cd|e2 ef|gf ed|fe cA|
a2 ag|f2 fe|d>e dB|A3 d|c2 cd|e2 f2|ge ce|d2 d/e/f/g|
aA ag|f2 f>e|d>e dB|A3 d|c2 cd|e2 ef|gf ed|fe cA|
A>A Ad|f2 ed|B>A Bd|BA Ad|c2 cd|e2 ef|ge ce|d2-d||
A|:d2 fd|af dA|B>A Bd|BA Ad|c2 cd|e3 f|gf ed|fe cA|
d2 fd|af dA|B>A Bd|BA Ad|c2 cd|e2 ef|ge ce|d2-d:|
f/g/|aA ag|fA fe|d>e dB|A3 d|c2 cd|e2 ef|gf ed|fe cA|
aA ag|fA fe|d>e dB|A3 d|c2 cd|e2 ef|ge ce|d2 d/e/f/g/|
aA ag|fA fe|d>e dB|A3 d|c2 cd|e2 ef|gf ed|fe cA|
A2 Ad|f2 ed|B>A Bd|BA Ad|c2 cd|e2 ef|ge ce|d2-d||

